X: 14
T: Cock And The Hen, The
Z: Slayer
S: https://thesession.org/tunes/93#setting49705
R: slip jig
M: 9/8
L: 1/8
K: Emin
|:~E3 EDE B2 G|~E3 EDE GED|~E3 EDE B2 c|dBG AGE GED:|
dBG GAB c2 e|dBG GAB AGE|dBG GAB cBA|BAG AGE GED|
dBG GAB cd/e/f|gdB GAB AGE|dBG GAB cBA|BAG AGE GED||

%-------------------- TUNE SEPARATOR --------------------%

